static/icons/info.svg

<svg xmlns="http://www.w3.org/2000/svg" width="24" height="24" viewBox="0 0 24 24">
  <path fill-rule="evenodd" d="M11.5,9.82 L11.5,8.14 L13.14,8.14 L13.14,9.82 L11.5,9.82 Z M12.32,19 C13.520006,19 14.6399948,18.6933364 15.68,18.08 C16.6933384,17.4933304 17.4933304,16.6933384 18.08,15.68 C18.6933364,14.6399948 19,13.520006 19,12.32 C19,11.119994 18.6933364,10.0000052 18.08,8.96 C17.4933304,7.9466616 16.6933384,7.1466696 15.68,6.56 C14.6399948,5.9466636 13.520006,5.64 12.32,5.64 C11.119994,5.64 10.0000052,5.9466636 8.96,6.56 C7.9466616,7.1466696 7.1466696,7.9466616 6.56,8.96 C5.9466636,10.0000052 5.64,11.119994 5.64,12.32 C5.64,13.520006 5.9466636,14.6399948 6.56,15.68 C7.1466696,16.6933384 7.9466616,17.4933304 8.96,18.08 C10.0000052,18.6933364 11.119994,19 12.32,19 Z M12.32,4 C13.8400076,4 15.2466602,4.3799962 16.54,5.14 C17.7933396,5.8600036 18.7799964,6.8466604 19.5,8.1 C20.2600038,9.3933398 20.64,10.7999924 20.64,12.32 C20.64,13.8400076 20.2600038,15.2466602 19.5,16.54 C18.7799964,17.7933396 17.7933396,18.7799964 16.54,19.5 C15.2466602,20.2600038 13.8400076,20.64 12.32,20.64 C10.7999924,20.64 9.3933398,20.2600038 8.1,19.5 C6.8466604,18.766663 5.8600036,17.7733396 5.14,16.52 C4.3799962,15.2266602 4,13.8266742 4,12.32 C4,10.8133258 4.3799962,9.4133398 5.14,8.12 C5.873337,6.8666604 6.8666604,5.873337 8.12,5.14 C9.4133398,4.3799962 10.8133258,4 12.32,4 Z M11.5,16.5 L11.5,11.5 L13.14,11.5 L13.14,16.5 L11.5,16.5 Z"/>
</svg>

<svg xmlns="http://www.w3.org/2000/svg" width="24" height="24">
    <path fill-rule="evenodd" d="M11.5 9.82V8.14h1.64v1.68H11.5zm.82 9.18c1.2 0 2.32-.307 3.36-.92a6.477 6.477 0 0 0 2.4-2.4c.613-1.04.92-2.16.92-3.36 0-1.2-.307-2.32-.92-3.36a6.477 6.477 0 0 0-2.4-2.4 6.501 6.501 0 0 0-3.36-.92c-1.2 0-2.32.307-3.36.92a6.477 6.477 0 0 0-2.4 2.4 6.501 6.501 0 0 0-.92 3.36c0 1.2.307 2.32.92 3.36a6.477 6.477 0 0 0 2.4 2.4c1.04.613 2.16.92 3.36.92zm0-15c1.52 0 2.927.38 4.22 1.14A7.886 7.886 0 0 1 19.5 8.1a8.182 8.182 0 0 1 1.14 4.22c0 1.52-.38 2.927-1.14 4.22a7.886 7.886 0 0 1-2.96 2.96 8.182 8.182 0 0 1-4.22 1.14c-1.52 0-2.927-.38-4.22-1.14a8.035 8.035 0 0 1-2.96-2.98A8.146 8.146 0 0 1 4 12.32c0-1.507.38-2.907 1.14-4.2a8.188 8.188 0 0 1 2.98-2.98A8.146 8.146 0 0 1 12.32 4zm-.82 12.5v-5h1.64v5H11.5z"/>
</svg>
